X:1
T:24 Arie Antiche
T:Vittoria, mio core!
T:Vittoria, mio core!
T:(24 Arie antiche) Cantata
T:Giacomo Carissimi (1605-1674) Alessandro Parisotti (1853-1913)
T:Low voices
T:OpenScore (CC0)
T:OpenScore (CC0)
T:OpenScore (CC0)
T:OpenScore (CC0)
T:OpenScore (CC0)
C:Giacomo Carissimi (1605-1674)
Z:OpenScore (CC0)
%%score 1 { ( 2 4 5 ) | ( 3 6 ) }
L:1/8
Q:1/4=168
M:3/4
K:A
V:1 treble nm="Voice"
V:2 treble nm="Piano"
V:4 treble 
V:5 treble 
V:3 bass 
V:6 bass 
V:1
"^Allegro con brio" z2 z2!f! E2 | E2 C2 D2 | E2 A,2 z A | A2 F2 =G2 | A2 F2 D2 | (F2 E4) | %6
w: Vit-|to- ria! Vit-|to- ria! Vit-|to- ria! Vit-|to- ria, mio|co \-´- *|
 D4!p! A,2 | B,3 C D2 | C4 E2 | F3 G A2 | G4!f! G2 | B2!<(! B2 B2 | B2 A2!<)! G2 | %13
w: \- re! Non|la- gri- mar|più, Non|la- gri- mar|più, È|sciol- ta d'A-|mo- re La|
!>(! G2 F3 E!>)! | E4!mf! E2 | E2 C2 D2 | E2 A,2 B,2 | (C2 B,4) | A,4 E2 | F3 G A2 | G4 G2 | %21
w: vil ser- vi-|tù; Vit-|to- ria! Vit-|to- ria, mio|co   \-- *|re! Non|la- gri- mar|più, È|
 B2 (BG) (AB) | (cB) (cB) (AG) | G2 F3 E | E4!p! E2 | (EDECDE |"^cresc." AGAFGA | BA!<(!BGAB | %28
w: sciol- ta _ d'A- *|mo- * re _ La _|vil ser- vi-|tù, È|sciol- * * * * *|||
 cdcBAG!<)! | F2) F2!f! G2 | A2 A2 B2 | (c2 B3)[Q:1/4=95] A | !fermata!A6 || %33
w: |* ta d'A-|mo- re La|ser- * vi|tù.|
[Q:1/4=100]"^meno mosso e dolce assai" z2!p! z2 E2 | A2 A3 c | A2 A2 C2 | E2 E2 E2 | C2 A,2 A2 | %38
w: Già|l'em- piaa´ tuoi|dan- ni, Fra|stuo- lo di|sguar- di, Con|
 c2 c2 c2 | A2 A2 E2 | B2 (cB) (AG) | (G2 F4) | E4 E2 |"^cresc." C2 A,2 A2 | F2 D2 d2 | B2 A2 A2 | %46
w: vez- zi bu-|giar- di Di-|spo- se _ gl'in- *|gan  \-- *|ni; Le-|fro- de, gliaf-|fan- ni Non|han- no più|
 (BABc d2) | c4 E2 | A2 F2 B2 | G2 G2 A2 | B2 (cB) (AG) | (G2 F4) | %52
w: lo- * * * *|co, Del|cru- do suo|fo- co È|spen- to _ l'ar- *|do- *|
 E4[Q:1/4=168]"^Tempo I°"!f! E2 | E2 C2 =D2 | E2 A,2 z A | A2 F2 =G2 | A2 F2 D2 | (F2 E4) | %58
w: re! Vit-|to- ria! Vit-|to- ria! Vit-|to- ria! Vit-|to- ria, mio|co- *|
 D4!p! A,2 | B,3 C D2 | C4 E2 | F3 G A2 | G4!f! G2 | B2 B2 B2 | B2 A2 G2 | G2 F3 E | E4!p! E2 | %67
w: re! Non|la- gri mar|più, Non|la- gri- mar|più, È|sciol- ta d'A-|mo- re La|vil ser- vi|tù; È|
 (E=DECDE |"^cresc." AGAFGA | BABGAB | cdcBAG | F2) F2!f! G2 | A2 A2 B2 | (c2 B3)[Q:1/4=95] A | %74
w: sciol- * * * * *||||* ta d'A-|mo- re La|ser- * vi|
 !fermata!A6 ||[Q:1/4=100]"^meno mosso e dolce assai" z2 z2!p! E2 | A2 A3 c | A2 A2 C2 | E2 E2 E2 | %79
w: tù!.|Da|lu- ci ri-|den- ti Non|e- sce più|
 C2 A,2 A2 | c2 c2 c2 | A2 A2 E2 | B2 (cB) (AG) | (G2 F4) | E4 E2 |"^cresc." C2 A,2 A2 | F2 D2 d2 | %87
w: stra- le, Che|pia- ga mor-|ta- le Nel|pet- to _ m'av- *|ven- *|ti: Nel|duol, ne' tor-|men- ti Lo|
 B2 A2 A2 |{Bc} (BABc d2) | c4 E2 |!<(! A2 F2 B2 | G2!<)! G2 A2 |!f! B2 (cB) (AG) | %93
w: più non mi|sfac- * * * *|cio, È|rot- too- gni|lac- cio, Spa-|ri- toil * ti- *|
!>(! (G2 F4)!>)! | E4!f![Q:1/4=168]"^Tempo 1°" E2 | E2 C2 =D2 | E2 A,2 z A | A2 F2 =G2 | A2 F2 D2 | %99
w: mo- *|re! Vit-|to- ria! Vit-|to- ria! Vit-|to- ria! Vit-|to- ria, mio|
 (F2 E4) | D4!p! A,2 | B,3 C D2 | C4 E2 | F3 G A2 | G4!f! G2 | B2 B2 B2 | B2 A2 G2 | G2 F3 E | %108
w: co- *|re! Non|la- gri mar|più, Non|la- gri- mar|più, È|sciol- ta d'A-|mo- re La|vil ser- vi-|
 E4!p! E2 | (E=DECDE | A"^cresc."GAFGA | BABGAB | cdcBAG | F2) F2!f! G2 | %114
w: tù; È|sciol- * * * * *||||* ta d'A-|
[Q:1/4=150]"^largamente stent." A2[Q:1/4=140] A2 B2 | c2[Q:1/4=120]{Bc} B3[Q:1/4=100] A | %116
w: mo- re la|ser- * vi|
 !fermata!A6 |] %117
w: tù!|
V:2
 [E,CE]6 | [CE]2 [A,C]2 [B,D]2 | ([CE]2 A,2) [FA]2 | [FA]2 [DF]2 [C=G]2 | [DA]2 [DF]2 D2 | F2 E4 | %6
 [A,D]2 A,4- | (A,2 ^G,4) | ([A,C]2 A,2) [B,E-]2 | (E2 ^D2) [DA]2 | ([EG]2 E2) G2 | B2!<(! B2 B2 | %12
 B2 A2!<)! G2 |!>(! G2 F4!>)! | ([G,E]2 E,2)!mf! [E,CE]2 | [CE]2 [A,C]2 [E,G,D]2 | [A,E]2 A,2 B,2 | %17
 (C2 B,4) | A,2 E4- | (E2 ^D2) [DA]2 | ([EG]2 E2) [EG]2 | [B,EGB]6 | B2 A2 G2 | G2 F4 | %24
 ([G,E]2 E,2)!p! E2 | ([E,A,E]6 |"_cresc." E2) D2 A2- | A2 G2 B2- | B2 A2 c2 | %29
 [A,DF]2 [F,A,F]2 [B,DG]2 | [A,CA]2 [A,EA]2 [FAB]2 | [EAc]2 !>![DEGB]4 | !fermata![CEA]6 || %33
!p! [E,A,CE]6 | [E,A,CE]6 | [E,A,CE]6 | [G,B,DE]6 | [A,CE]6 | [A,CE]6 | [A,CE]6 | B2 A2 G2 | %41
 G2 F4 | [G,E]6 |"_cresc." [CE]6 | [DF]6 | E4 A2- | A2 G2 B2 | E6 | A2 F2 B2 | [B,EG]4 [B,^DA]2 | %50
 B2 A3 G | (G2 F4) | [G,E]4!f! [E,CE]2 | [CE]2 [A,C]2 [E,B,=D]2 | ([E,CE]2 A,2) [A,FA]2 | %55
 [FA]2 [DF]2 [C=G]2 | [DA]2 [DF]2 D2 | F2 E4 | [A,D]2!p! A,4 | B,4 D2 | ([A,C]2 A,2) [B,E-]2 | %61
 (E2 ^D2) [DA]2 | ([EG]2 E2) G2 | B2 B2 B2 | B2 A2 G2 | G2 F4 | ([G,E]2 E,2)!p! E2 | [E,A,E]6 | %68
"_cresc." E2 D2 A2- | A2 G2 B2- | B2 A2 c2 | [A,DF]2 [F,A,F]2 [B,DG]2 | [A,CA]2 [A,EA]2 [FAB]2 | %73
 [EAc]2 [DEGB]4 | !fermata![CEA]6 ||!p! [E,A,CE]6 | [E,A,CE]6 | [E,A,CE]6 | [G,B,DE]6 | [A,CE]6 | %80
 [A,CE]6 | [A,CE]6 | B2 A2 G2 | (G2 F4) | [G,E]6 | [CE]6 | [DF]6 | E4 A2- | A2 G2 B2 | [CE]6 | %90
!<(! A2 F2 B2 | [B,EG]4!<)! [B,^DA]2 |!f! [B,EB]2 A3 G |!>(! (G2 F4)!>)! | [G,E]4!f! [E,CE]2 | %95
 [CE]2 [A,C]2 [E,B,=D]2 | ([E,CE]2 A,2) [A,FA]2 | [FA]2 [DF]2 [A,C=G]2 | [A,DA]2 [DF]2 D2 | %99
 (F2 E4) | [A,D]2 A,4 | B,4 D2 | ([A,C]2 A,2) [B,E-]2 | (E2 ^D2) [A,DA]2 | ([EG]2 E2) G2 | %105
 B2 B2 B2 | B2 A2 G2 | G2 F4 | ([G,E]2 E,2)!p! E2 | [E,A,E]6 | E2 D2 A2- | A2 G2 B2- | B2 A2 c2 | %113
 [A,DF]2 [F,A,F]2 [B,DG]2 | [A,CA]2 [A,EA]2 [FAB]2 | [EAc]2 !>![DEGB]4 | !fermata![CEA]6 |] %117
V:3
!f! [A,,,A,,]6 | [A,,,A,,]6 | [A,,,A,,]6 | [D,,D,]2 D,,2 E,,2 | F,,2 =G,,4 | A,,6 | %6
!p! [D,F,]4 [C,E,]2 | [B,,D,]6 | E,6 | [F,,F,]6 | E,6 | G,,6 | A,,6 | B,,6 | E,,6 | %15
 [A,,,A,,]4 [B,,,B,,]2 | [C,,C,]2 [D,,D,]4 | E,4 D,2 | C,4 E,2 | [F,,F,]6 | [E,,E,]6 | G,,6 | %22
 A,,6 | B,,6 | E,,6 | [C,,C,]6 | F,,6 | E,,6 | A,,6 | D,2 [D,,D,]2 [E,,E,]2 | %30
 [F,,F,]2 [C,,C,]2 [D,,D,]2 | [E,,E,]2 !>![E,,,E,,]4 | !fermata![A,,,A,,]6 || %33
"^meno mosso e  dolce assai" A,,6- | A,,6 | A,,6- | A,,6 | A,,6- | A,,6 | A,,6 | G,,2 A,,4 | B,,6 | %42
 E,,6 | [A,,A,]6 | [D,A,]6 | G,2 A,4 | B,4 G,2 | A,6 | F,,2 B,,4 | E,,4 F,,2 | G,,2 A,,4 | B,,6 | %52
 E,,6 | [A,,,A,,]6 | [A,,,A,,]6 | [D,,D,]2 D,,2 E,,2 | F,,2 =G,,4 | A,,6 | [D,F,]4 [C,E,]2 | %59
 [B,,D,]6 | E,6 | [F,,F,]6 | [E,,E,]6 | G,,6 | A,,6 | B,,6 | E,,6 | [C,,C,]6 | F,,6 | E,,6 | A,,6 | %71
 D,2 [D,,D,]2 [E,,E,]2 | [F,,F,]2 [C,,C,]2 [D,,D,]2 | [E,,E,]2 [E,,,E,,]4 | !fermata![A,,,A,,]6 || %75
"^meno mosso e dolce assai" [A,,,A,,]6- | [A,,,A,,]6 | [A,,,A,,]6- | [A,,,A,,]6 | [A,,,A,,]6- | %80
 [A,,,A,,]6 | A,,6 | G,,2 A,,4 | B,,6 | E,,6 |"^cresc." [A,,A,]6 | [D,A,]6 | [E,G,]2 A,4 | %88
 B,4 G,2 | A,6 | F,,2 B,,4 | E,,4 F,,2 | G,,2 A,,4 | B,,6 | E,,6 | [A,,,A,,]6 | [A,,,A,,]6 | %97
 [D,,D,]2 D,,2 E,,2 | F,,2 =G,,4 | A,,6 | [D,F,]4!p! [C,E,]2 | [B,,D,]6 | E,6 | [F,,F,]6 | %104
 [E,,E,]6 | G,,6 | A,,6 | B,,6 | E,,6 | [C,,C,]6 |!<(! F,,6!<)! | E,,6 | A,,6 | %113
 D,2 [D,,D,]2 [E,,E,]2 |"^col canto" [F,,F,]2 [C,,C,]2 [D,,D,]2 | [E,,E,]2 !>![E,,,E,,]4 | %116
 !fermata![A,,,A,,]6 |] %117
V:4
 x6 | E,4 E,2 | E,2 x2 A,2 | A,4 A,2 | A,2 B,4 | D4 C2 | x2 A,4 | B,4 D2 | x6 | A,4 A,2 | B,6 | %11
 [B,E]6 | [CE]6 | E4 ^D2 | x6 | E,4 x2 | E,2 [F,A,]4 | A,4 G,2 | A,4 B,2 | A,4 A,2 | B,4 B,2 | x6 | %22
 [CE]6 | B,6 | x6 | x6 | [F,A,]4 [A,D]2 | [B,E]4 [EG]2 | [CE]4 [EA]2 | x6 | x6 | x6 | x6 || x6 | %34
 x6 | x6 | x6 | x6 | x6 | x6 | [B,E]2 [CE]4 | E4 ^D2 | x6 | x6 | x6 | B,2 C2 E2 | D6 | C6 | %48
 [A,C]2 [B,^D]4 | x6 | [B,E]2 [CE]4 | [B,E]4 [A,^D]2 | x6 | E,4 x2 | x6 | A,4 A,2 | A,2 B,4 | %57
 D4 C2 | x2 A,4- | (A,2 ^G,4) | x6 | A,4 A,2 | B,6 | [B,E]6 | [CE]6 | E4 ^D2 | x6 | x6 | %68
 [F,A,]4 [A,D]2 | [B,E]4 [EG]2 | [CE]4 [EA]2 | x6 | x6 | x6 | x6 || x6 | x6 | x6 | x6 | x6 | x6 | %81
 x6 | [B,E]2 [CE]4 | E4 ^D2 | x6 | x6 | x6 | B,2 C2 E2 | D6 | x6 | [A,C]2 [B,^D]4 | x6 | x2 [CE]4 | %93
 [B,E]4 [A,^D]2 | x6 | E,4 x2 | x6 | A,4 x2 | x2 B,4 | D4 C2 | x2 A,4- | (A,2 ^G,4) | x6 | A,4 x2 | %104
 B,6 | [B,E]6 | [CE]6 | E4 ^D2 | x6 | x6 | [F,A,]4 [A,D]2 | [B,E]4 [EG]2 | [CE]4 [EA]2 | x6 | x6 | %115
 x6 | x6 |] %117
V:5
 x6 | x6 | x6 | x6 | x6 | A,6 | x6 | x6 | x6 | x6 | x6 | x6 | x6 | B,6 | x6 | x6 | x6 | x6 | x6 | %19
 x6 | x6 | x6 | x6 | E4 ^D2 | x6 | x6 | x6 | x6 | x6 | x6 | x6 | x6 | x6 || x6 | x6 | x6 | x6 | %37
 x6 | x6 | x6 | x6 | B,6 | x6 | x6 | x6 | x6 | x6 | x6 | x6 | x6 | x6 | x6 | x6 | x6 | x6 | x6 | %56
 x6 | A,6 | x6 | x6 | x6 | x6 | x6 | x6 | x6 | B,6 | x6 | x6 | x6 | x6 | x6 | x6 | x6 | x6 | x6 || %75
 x6 | x6 | x6 | x6 | x6 | x6 | x6 | x6 | B,6 | x6 | x6 | x6 | x6 | x6 | x6 | x6 | x6 | x6 | x6 | %94
 x6 | x6 | x6 | x6 | x6 | A,6 | x6 | x6 | x6 | x6 | x6 | x6 | x6 | B,6 | x6 | x6 | x6 | x6 | x6 | %113
 x6 | x6 | x6 | x6 |] %117
V:6
 x6 | x6 | x6 | x6 | x6 | x6 | x6 | x6 | A,,4 G,,2 | x6 | E,,6 | x6 | x6 | x6 | x6 | x6 | x6 | %17
 E,,6 | A,,4 G,,2 | x6 | x6 | x6 | x6 | x6 | x6 | x6 | x6 | x6 | x6 | x6 | x6 | x6 | x6 || A,,,6- | %34
 A,,,6 | A,,,6- | A,,,6 | A,,,6- | A,,,6 | x6 | x6 | x6 | x6 | x6 | x6 | E,2 C,4 | B,,6 | A,,6 | %48
 x6 | x6 | x6 | x6 | x6 | x6 | x6 | x6 | x6 | x6 | x6 | x6 | A,,4 G,,2 | x6 | x6 | x6 | x6 | x6 | %66
 x6 | x6 | x6 | x6 | x6 | x6 | x6 | x6 | x6 || x6 | x6 | x6 | x6 | x6 | x6 | x6 | x6 | x6 | x6 | %85
 x6 | x6 | x2 C,4 | B,,6 | A,,6 | x6 | x6 | x6 | x6 | x6 | x6 | x6 | x6 | x6 | x6 | x6 | x6 | %102
 A,,4 G,,2 | x6 | x6 | x6 | x6 | x6 | x6 | x6 | x6 | x6 | x6 | x6 | x6 | x6 | x6 |] %117

